!!!COM: Bach, Johann Sebastian
!!!CDT: 1685/3//-1750/7/28/
!!!OTL@@DE: Wenn wir in hoechsten Noeten sein
!!!AGN: 4-Part Chorale; Chorale Prelude
!!!SCT: BH 068
!!!SCT: BWV 431
**harm	**root	**kern	**kern	**kern	**kern
!	!	!bass	!tenor	!alto	!soprno
*	*Iorgan	*Iorgan	*Iorgan	*Iorgan	*Iorgan
*	*	*clefF4	*clefF4	*clefG2	*clefG2
*M4/4	*M4/4	*M4/4	*M4/4	*M4/4	*M4/4
*met(c)	*met(c)	*met(c)	*met(c)	*met(c)	*met(c)
*MM60	*MM60	*MM60	*MM60	*MM60	*MM60
*k[b-e-a-d-g-]	*k[b-e-a-d-g-]	*k[b-e-a-d-g-]	*k[b-e-a-d-g-]	*k[b-e-a-d-g-]	*k[b-e-a-d-g-]
*D-:	*D-:	*D-:	*D-:	*D-:	*D-:
I	4FF	8D-	8F	[4A-	4d-
.	.	8C	8E-	.	.
=1	=1	=1	=1	=1	=1
viiob/V	4BB	4BB-	4D-	8A-]	4d-
.	.	.	.	8G	.
Vb	8CC	8C	8A-	[4A-	4e-
V7	8CC	8AA-	8G-y	.	.
I	4FF	4D-	8F	8A-]	4f
.	.	.	8G-	8B-	.
V	4CC	4AA-	4A-	4c	8e-
.	.	.	.	.	8f
=2	=2	=2	=2	=2	=2
IVb	8BB-	8BB-	8D-	8d-	4g-
V7b	8CC	8C	8A-	[8e-	.
I	4FF	4D-	4A-	8e-]	4f
.	.	.	.	[8d-	.
ii7b	8GG	4GG-	8B-	8d-]	4.e-
iib	8GG	.	8G-	16c	.
.	.	.	.	16B-	.
V	4CC	4AA-	8E-	4c	.
.	.	.	16A-	.	8e-
.	.	.	16G-	.	.
=3	=3	=3	=3	=3	=3
I;	2FF;	2DD-;	2F;	2A-;	2d-;
r	4r	4r	4r	4r	4r
I	4FF	8D-	4A-	[4d-	4f
.	.	8C-	.	.	.
=4	=4	=4	=4	=4	=4
IVb	8BB-	8BB-	8B-	8d-]	4g-
V7b	8CC	8C	8A-	[8e-	.
I	4FF	4D-	4A-	8e-]	4f
.	.	.	.	[8d-	.
V7b/V	8GG	8GG	8B-	8d-]	4e-
V	8CC	8AA-	4A-	8c	.
viio/V	4BB	4BB-	.	4B-	4d-
.	.	.	8G	.	.
!!linebreak: 2
=5	=5	=5	=5	=5	=5
V	4CC	8AA-	4A-	4E-	4c
.	.	8GG-y	.	.	.
Ib	4FF	8FF	4D-	4A-	4d-
.	.	8DD-	.	.	.
V;	4CC;	4AA-;	4C;	4A-;	4e-;
iii	4AA	4FF	4F	8c	4a-
.	.	.	.	8d	.
=6	=6	=6	=6	=6	=6
ii	8GG	4EE-	8B-	8e-	4g-
viioD7/vi	8CC#	.	8A	8c	.
vi	4DD	8BB-	4B-	8d-	4f
.	.	8AA-	.	8c	.
Vb/V	4GG	4GG	4E-	[4B-	8e-
.	.	.	.	.	8d-
V	4CC	4AA-	4E-	8B-]	4c
.	.	.	.	[8A-	.
=7	=7	=7	=7	=7	=7
I	4FF	4DD-	4F	8A-]	4d-
.	.	.	.	16B-	.
.	.	.	.	16A-	.
V/V	4GG	4EE-	8E-	4G	4B-
.	.	.	8D-	.	.
V;	4CC;	4AA-;	4C;	4E-;	4A-;
I	4FF	4DD-	4A-	8d-	4f
.	.	.	.	8c-	.
=8	=8	=8	=8	=8	=8
ii	4GG	4EE-	4G-	8B-	4g-
.	.	.	.	8c	.
Ib	4FF	8FF	[4A-	[4d-	4f
.	.	8GG-	.	.	.
V	4CC	4AA-	8.A-]	8d-]	4e-
.	.	.	.	[8c	.
.	.	.	16G-	.	.
vi	8DD	4BB-	8F	8c]	4d-
IVb	8BB-	.	8G-	16B-	.
.	.	.	.	16c	.
=9	=9	=9	=9	=9	=9
Ib	4FF	8FF	4A-	4.d-	4f
.	.	8GG-	.	.	.
V	4CC	4AA-	8.A-	.	4e-
.	.	.	.	8c	.
.	.	.	16G-	.	.
I;	4FF;	4DD-;	4F;	4A-;	4d-;
==	==	==	==	==	==
*-	*-	*-	*-	*-	*-
!!chor2scor: -l 2 -s 0.6 -o %b.pmx
!!!YEC: Copyright 1994, David Huron
!!!YEC: Changes/Additions Copyright 2001 by Craig Stuart Sapp
!!!license: GNU General Public License (http://www.gnu.org/copyleft/gpl.html)
!!!SMA: 371 Bach Chorales, edited by Ludwig Erk, C.F. Peters
!!!PDT: 1850, 1865
!!!ONB: Harmony and Root analysis done manually
